X:626
L:1/8
M:4/4
K:C
[M:6/8][K:A] A da ue =g aua .e a A ab uca e e a ad decde[Q:1/8=160]e/d/ | cAA eAA | aga e2 d | 
 cAA eAA | Bc/d/c Bed | cAA eAA | aga e2 d | cd/e/c BAB | cAA A2 :| A/B/ | c=c^c ecA | dAd daa | 
 c=c^c ecA | dcd B2 B | c=c^c ecA | dAd daa | cd/e/c BAB | cAA A2 :|

